X:1
T:Low at His Feet
T:Low at His Feet
T:Barney E. Warren, pub.1911
T:Daniel S. Warner
T:PUBLIC DOMAIN
C:Barney E. Warren, pub.1911
Z:Daniel S. Warner
Z:PUBLIC DOMAIN
%%score ( 1 2 ) ( 3 4 )
L:1/8
Q:1/8=120
M:6/8
K:A
V:1 treble nm="Treble"
V:2 treble 
V:3 bass nm="Bass"
V:4 bass 
V:1
 [CA] | [Ec] [Ec] [Ec] [Ec] [DB] [CA] | [CE]3 [CA]2 [Ec] | [EB] [EB] [EB] [EB] [EA] [EB] | %4
w: 1.~Oh,|when we re- mem- ber the|good- ness And|in- fi- nite pit- y of|
w: 2.~’Tis|meet that a crea- ture de-|pen- dent For|e- ven this breath that we|
w: 3.~And|when we be- hold the com-|pas- sion That|flowed from the side of the|
w: 4.~Come,|sin- ner, and pon- der a|mo- ment, The|pains of the Cru- ci- fied|
 [Ec]3 [Ec]2 | [CA] | [Ec] [Ec] [Ec] [Ec] [DB] [CA] | [CE]3 [CA]2 [Ec] | %8
w: God, *|Who|ten- der- ly bore with our|hard- ness, When|
w: draw, *|Should|feel ver- y grate- ful, and|hum- bly Serve|
w: Just; *|Such|love to the poor, guilt- y|sin- ner Com-|
w: One; *|Was|not this to save thee from|tor- ment? Then|
 [DB] [CA] [DB] [Ec] [Ec] [DB] | [CA]3 [CA]2 ||"^Refrain" [CE] | [DF]3 [DF]2 [DG] | %12
w: o- ver His mer- cies we|trod. *|’Tis|low, _ ’tis|
w: God in His beau- ti- ful|law. *|||
w: pels us to fall in the|dust. *|||
w: yield at the feet of the|Son. *|||
 [CA]3 [CA]2 [Ec] | [EB] [EB][EB] (d c)[EB] | [Ec]3 [Ec]2 | [=Gc] | (([Fd]3 [DF]2)) [DG] | %17
w: low, _ Low|down at His feet * we|bow; _|’Tis|low, _ ’tis|
w: |||||
w: |||||
w: |||||
 (([CA]3 [Ec]2)) [Ec] | [EB] [EB][EB] (B A)[EG] | [EA]3 [EA]2 |] %20
w: low, _ ’Tis|low at His feet * we|bow; *|
w: |||
w: |||
w: |||
V:2
 x | x6 | x6 | x6 | x5 | x | x6 | x6 | x6 | x5 || x | x6 | x6 | z3 E2 z | x5 | x | x6 | x6 | %18
 z3 E2 z | x5 |] %20
V:3
 [A,,E,] | [A,,A,] [A,,A,] [A,,A,] [A,,A,] [A,,A,] [A,,A,] | [A,,A,]3 [A,,A,]2 [A,,A,] | %3
w: |||
 [E,G,] [E,G,] [E,G,] [E,G,] [C,A,] [E,G,] | A,3 A,2 | [A,,E,] | %6
w: |||
 [A,,A,] [A,,A,] [A,,A,] [A,,A,] [A,,A,] [A,,A,] | [A,,A,]3 [A,,A,]2 [A,,A,] | %8
w: ||
 [E,G,] [E,F,][E,G,] [E,A,] [E,A,]E, | [A,,E,]3 [A,,E,]2 || [A,,A,] | %11
w: |||
 [D,A,]2 [D,A,] [D,A,]2 [B,,E,] | [A,,E,]2 [A,,E,] [A,,E,]2 [A,,A,] | %13
w: * ’tis low, *|* ’tis low, *|
 [E,G,] [E,G,][E,G,] (B, A,)[E,G,] | A,2 A, A,2 | A, | [D,A,]2 [D,A,] [D,A,]2 [B,,E,] | %17
w: |* we bow;||* ’tis low, *|
 [A,,E,]2 [A,,E,] [A,,A,]2 [A,,A,] | [E,G,] [E,G,][E,G,] (D C)[E,B,] | [A,,C]3 [A,,C]2 |] %20
w: * ’tis low, *|||
V:4
 x | x6 | x6 | x6 | A,3 A,2 | x | x6 | x6 | z3 z z E, | x5 || x | x6 | x6 | z3 E,2 z | A,2 A, A,2 | %15
 A, | x6 | x6 | z3 E,2 z | x5 |] %20

